X:1
T:Bourree BWV 1002
T:Bourree BWV 1002
T:Johann Sebastian BACH
C:Johann Sebastian BACH
%%score ( 1 2 )
L:1/8
Q:1/2=76
M:2/2
K:D
V:1 treble-8 nm="Classical Guitar" snm="Guit."
V:2 treble-8 
V:1
!f! f2 | !arpeggio![dfb]2 f2 !arpeggio![dfb]2 f2 | g2 gf e2 g2 | [Bf]2 [ce]2 d2 c2 | %4
 edcd B2!p! dc | d6 d2 | [Gc]2 cB c2 (ae) | c6 c2 | [FB]2 BA B2 bg |!<(! e2 ge c2 ec!<)! | %10
 A2 Bc defg | a2!f! d2 e2 c2 | dc d2 b2 d2 | (cB) c2 a2 =c2 | [GB]2 d2 (cd) e2 | G2 GF G2!p! eF | %16
!<(! G2 eF G2 eF!<)! | G2 c2 a4- |!mp! ad'c'b agba | gfed A2!f! [Gc]2 | [Fd]6 ::!f! [df]2 | %22
 [ce]2 [df]2 [eg]2 [df]2 | [ce]2 ed e2 [Fda]2 | [Ec]2 [Fd]2 [Ge]2 [Fd]2 | %25
 [Ec]2 [Ec][DB] [Ec]2 [F^d]2 | [GBe]2 [Bg]4 [Af]2 | [Ge][F^d] [Ge]2 [Ge]2 [eg][df] | %28
 [eg]2 [eb]2 P[Bg]2 fe | e6 [Bg]2 | c2 g2 c2 g2 | [Ag]2 fe f2 b2 | c2 b2 c2 a2 | %33
 ^gf^e^d c2!mp! c'b | c'6 c'2 | e2 dc d2 b^a | b6 b2 |"_cresc." c^d^ef ^gabg | ba^gf c2!mf! ^e2 | %39
 f2!<(! z2 z4!<)! |!f! z2 a2 ^d2 a2 | a2 gf g2 z2 | z2 g2 c2 g2 | g2 fe fdcB | ^A2 e2 G2 e2 | %45
 Fced egfe | dcBA G^ABc |!>(! dBc^A F!p!cf^g!>)! |!<(! ^abab c'd'c'd'!<)! |!f! e'4 e'4 | %50
!p! cd!<(!ef ^g^abc'!<)! |!f! d'4 d'4 |!p! z8 |!<(! z d'c'b ^agfe!<)! |!f! dcdB F2 ^A2 | B2 dc B4 | %56
 z2 dc B^A B2 | [Bf]2 B^A B2!p! =cB | AGFE ^D=cBA | GFEF GABc | dfb^g ^ecd'c' | b^abc' f2!p! c'd | %62
"_cresc." e2 c'd e2 c'd | e2 gf g4- | g!mp!fed cB^Ac |!<(! EGFE DCB,^A,!<)! | %66
!ff! !arpeggio![dfb]2 f2 !arpeggio![dfb]2 f2 | g2 gf e2 g2 | %68
[Q:1/2=70]"_poco allargando" f2[Q:1/2=65] e2[Q:1/2=60] d2[Q:1/2=55] e[Q:1/2=50]c | B8 |] %70
V:2
 x2 | [B,FB]2 z2 [B,FB]2 z2 | [^Ac]6 [EA]2 | D2 E2 F2 F,2 | [B,F]6 z2 | z2 [B,F]2 [B,G]4 | A,8 | %7
 z2 [A,E]2 [A,F]4 | G,6 z2 | z8 | G8 | z2 F2 G2 A2 | [B,A]4 z2 ^G2 | [A,G]6 [A,F]2 | G,2 F2 E2 D2 | %15
 C8 | C4 B,4 | A,8 | z8 | z4 A2 A,2 | D6 :: D2 | A4 A4 | A6 A,2 | A,4 A,4 | A,6 z2 | G,4 B,4 | %27
 =C6 z2 | z2 G2 B2 z2 | E z F z G z E2 | A4 A,4 | D6 z2 | ^E4 F4 | C6 z2 | z2 [Be]2 [^Ae]4 | %35
 B6 z2 | z2 [Ad]2 [^Gd]2 [Fd]2 | ^E4 z4 | [Fc]4 c2 [CB]2 | [F,A]2 FG FE^DC | B,4 [B,F]4 | %41
 [EB]4 z EFG | A,4 [A,G]4 | [DA]6 z2 | C4 B,4 | ^A,4 z4 | x8 | x8 | x8 |xf^Afx!>(!fAf!>)! | x8 | %51
x^eB!>(!exeBc!>)! | dedc BA^GF | ^E2 z2 z4 | x8 | [B,F]2 z2 z2 B,A, | G,4 z4 | D4 z4 | x8 | x8 | %60
 x8 | x8 | F4 ^G4 | ^A4 z4 | x8 | x8 | [B,FB]2 z2 [B,FB]2 z2 | [^Ac]6 [Ae]2 | [Bd]2 E2 F2 F,2 | %69
 [B,F]8 |] %70

